bernoullicharts/sin_x__mean.svg

<?xml version="1.0" encoding="utf-8" standalone="no"?>
<!DOCTYPE svg PUBLIC "-//W3C//DTD SVG 1.1//EN"
  "http://www.w3.org/Graphics/SVG/1.1/DTD/svg11.dtd">
<!-- Created with matplotlib (https://matplotlib.org/) -->
<svg height="345.6pt" version="1.1" viewBox="0 0 460.8 345.6" width="460.8pt" xmlns="http://www.w3.org/2000/svg" xmlns:xlink="http://www.w3.org/1999/xlink">
 <defs>
  <style type="text/css">
*{stroke-linecap:butt;stroke-linejoin:round;}
  </style>
 </defs>
 <g id="figure_1">
  <g id="patch_1">
   <path d="M 0 345.6 
L 460.8 345.6 
L 460.8 0 
L 0 0 
z
" style="fill:#ffffff;"/>
  </g>
  <g id="axes_1">
   <g id="patch_2">
    <path d="M 57.6 307.584 
L 414.72 307.584 
L 414.72 41.472 
L 57.6 41.472 
z
" style="fill:#ffffff;"/>
   </g>
   <g id="matplotlib.axis_1">
    <g id="xtick_1">
     <g id="line2d_1">
      <defs>
       <path d="M 0 0 
L 0 3.5 
" id="m39aacca548" style="stroke:#000000;stroke-width:0.8;"/>
      </defs>
      <g>
       <use style="stroke:#000000;stroke-width:0.8;" x="73.800255" xlink:href="#m39aacca548" y="307.584"/>
      </g>
     </g>
     <g id="text_1">
      <text style="font-family:DejaVu Sans;font-size:10px;font-style:normal;font-weight:normal;text-anchor:middle;" transform="rotate(-0, 73.800255, 322.182437)" x="73.800255" y="322.182437">0.0</text>
     </g>
    </g>
    <g id="xtick_2">
     <g id="line2d_2">
      <g>
       <use style="stroke:#000000;stroke-width:0.8;" x="138.744153" xlink:href="#m39aacca548" y="307.584"/>
      </g>
     </g>
     <g id="text_2">
      <text style="font-family:DejaVu Sans;font-size:10px;font-style:normal;font-weight:normal;text-anchor:middle;" transform="rotate(-0, 138.744153, 322.182437)" x="138.744153" y="322.182437">0.2</text>
     </g>
    </g>
    <g id="xtick_3">
     <g id="line2d_3">
      <g>
       <use style="stroke:#000000;stroke-width:0.8;" x="203.688051" xlink:href="#m39aacca548" y="307.584"/>
      </g>
     </g>
     <g id="text_3">
      <text style="font-family:DejaVu Sans;font-size:10px;font-style:normal;font-weight:normal;text-anchor:middle;" transform="rotate(-0, 203.688051, 322.182437)" x="203.688051" y="322.182437">0.4</text>
     </g>
    </g>
    <g id="xtick_4">
     <g id="line2d_4">
      <g>
       <use style="stroke:#000000;stroke-width:0.8;" x="268.631949" xlink:href="#m39aacca548" y="307.584"/>
      </g>
     </g>
     <g id="text_4">
      <text style="font-family:DejaVu Sans;font-size:10px;font-style:normal;font-weight:normal;text-anchor:middle;" transform="rotate(-0, 268.631949, 322.182437)" x="268.631949" y="322.182437">0.6</text>
     </g>
    </g>
    <g id="xtick_5">
     <g id="line2d_5">
      <g>
       <use style="stroke:#000000;stroke-width:0.8;" x="333.575847" xlink:href="#m39aacca548" y="307.584"/>
      </g>
     </g>
     <g id="text_5">
      <text style="font-family:DejaVu Sans;font-size:10px;font-style:normal;font-weight:normal;text-anchor:middle;" transform="rotate(-0, 333.575847, 322.182437)" x="333.575847" y="322.182437">0.8</text>
     </g>
    </g>
    <g id="xtick_6">
     <g id="line2d_6">
      <g>
       <use style="stroke:#000000;stroke-width:0.8;" x="398.519745" xlink:href="#m39aacca548" y="307.584"/>
      </g>
     </g>
     <g id="text_6">
      <text style="font-family:DejaVu Sans;font-size:10px;font-style:normal;font-weight:normal;text-anchor:middle;" transform="rotate(-0, 398.519745, 322.182437)" x="398.519745" y="322.182437">1.0</text>
     </g>
    </g>
    <g id="text_7">
     <text style="font-family:DejaVu Sans;font-size:10px;font-style:normal;font-weight:normal;text-anchor:middle;" transform="rotate(-0, 236.16, 335.860562)" x="236.16" y="335.860562">Input Coin's Heads Probability (λ)</text>
    </g>
   </g>
   <g id="matplotlib.axis_2">
    <g id="ytick_1">
     <g id="line2d_7">
      <defs>
       <path d="M 0 0 
L -3.5 0 
" id="m3e6b730ee4" style="stroke:#000000;stroke-width:0.8;"/>
      </defs>
      <g>
       <use style="stroke:#000000;stroke-width:0.8;" x="57.6" xlink:href="#m3e6b730ee4" y="295.488"/>
      </g>
     </g>
     <g id="text_8">
      <text style="font-family:DejaVu Sans;font-size:10px;font-style:normal;font-weight:normal;text-anchor:end;" transform="rotate(-0, 50.6, 299.287219)" x="50.6" y="299.287219">0.0</text>
     </g>
    </g>
    <g id="ytick_2">
     <g id="line2d_8">
      <g>
       <use style="stroke:#000000;stroke-width:0.8;" x="57.6" xlink:href="#m3e6b730ee4" y="238.565647"/>
      </g>
     </g>
     <g id="text_9">
      <text style="font-family:DejaVu Sans;font-size:10px;font-style:normal;font-weight:normal;text-anchor:end;" transform="rotate(-0, 50.6, 242.364866)" x="50.6" y="242.364866">0.2</text>
     </g>
    </g>
    <g id="ytick_3">
     <g id="line2d_9">
      <g>
       <use style="stroke:#000000;stroke-width:0.8;" x="57.6" xlink:href="#m3e6b730ee4" y="181.643294"/>
      </g>
     </g>
     <g id="text_10">
      <text style="font-family:DejaVu Sans;font-size:10px;font-style:normal;font-weight:normal;text-anchor:end;" transform="rotate(-0, 50.6, 185.442513)" x="50.6" y="185.442513">0.4</text>
     </g>
    </g>
    <g id="ytick_4">
     <g id="line2d_10">
      <g>
       <use style="stroke:#000000;stroke-width:0.8;" x="57.6" xlink:href="#m3e6b730ee4" y="124.720941"/>
      </g>
     </g>
     <g id="text_11">
      <text style="font-family:DejaVu Sans;font-size:10px;font-style:normal;font-weight:normal;text-anchor:end;" transform="rotate(-0, 50.6, 128.52016)" x="50.6" y="128.52016">0.6</text>
     </g>
    </g>
    <g id="ytick_5">
     <g id="line2d_11">
      <g>
       <use style="stroke:#000000;stroke-width:0.8;" x="57.6" xlink:href="#m3e6b730ee4" y="67.798588"/>
      </g>
     </g>
     <g id="text_12">
      <text style="font-family:DejaVu Sans;font-size:10px;font-style:normal;font-weight:normal;text-anchor:end;" transform="rotate(-0, 50.6, 71.597807)" x="50.6" y="71.597807">0.8</text>
     </g>
    </g>
    <g id="text_13">
     <text style="font-family:DejaVu Sans;font-size:10px;font-style:normal;font-weight:normal;text-anchor:middle;" transform="rotate(-90, 28.617187, 174.528)" x="28.617187" y="174.528">Simulated Mean / Function Value</text>
    </g>
   </g>
   <g id="line2d_12">
    <path clip-path="url(#p746eef35a2)" d="M 73.832727 295.459539 
L 77.112066 292.585298 
L 80.391405 289.711353 
L 83.670744 286.837997 
L 86.950083 283.965523 
L 90.229421 281.094225 
L 93.50876 278.224395 
L 96.788099 275.356325 
L 100.067438 272.490308 
L 103.346777 269.626637 
L 106.626116 266.765604 
L 109.905455 263.9075 
L 113.184793 261.052616 
L 116.464132 258.201245 
L 119.743471 255.353677 
L 123.02281 252.510201 
L 126.302149 249.67111 
L 129.581488 246.83669 
L 132.860826 244.007233 
L 136.140165 241.183026 
L 139.419504 238.364358 
L 142.698843 235.551516 
L 145.978182 232.744786 
L 149.257521 229.944456 
L 152.53686 227.15081 
L 155.816198 224.364134 
L 159.095537 221.584712 
L 162.374876 218.812827 
L 165.654215 216.048762 
L 168.933554 213.292799 
L 172.212893 210.545219 
L 175.492231 207.806303 
L 178.77157 205.076328 
L 182.050909 202.355575 
L 185.330248 199.64432 
L 188.609587 196.94284 
L 191.888926 194.251411 
L 195.168264 191.570307 
L 198.447603 188.899801 
L 201.726942 186.240166 
L 205.006281 183.591673 
L 208.28562 180.954592 
L 211.564959 178.329192 
L 214.844298 175.715741 
L 218.123636 173.114506 
L 221.402975 170.525751 
L 224.682314 167.949741 
L 227.961653 165.386738 
L 231.240992 162.837004 
L 234.520331 160.3008 
L 237.799669 157.778382 
L 241.079008 155.27001 
L 244.358347 152.775938 
L 247.637686 150.296421 
L 250.917025 147.831713 
L 254.196364 145.382063 
L 257.475702 142.947723 
L 260.755041 140.52894 
L 264.03438 138.125961 
L 267.313719 135.739031 
L 270.593058 133.368394 
L 273.872397 131.014291 
L 277.151736 128.676962 
L 280.431074 126.356647 
L 283.710413 124.053581 
L 286.989752 121.767999 
L 290.269091 119.500135 
L 293.54843 117.25022 
L 296.827769 115.018482 
L 300.107107 112.805151 
L 303.386446 110.610451 
L 306.665785 108.434607 
L 309.945124 106.27784 
L 313.224463 104.140371 
L 316.503802 102.022416 
L 319.78314 99.924193 
L 323.062479 97.845915 
L 326.341818 95.787795 
L 329.621157 93.750042 
L 332.900496 91.732863 
L 336.179835 89.736466 
L 339.459174 87.761053 
L 342.738512 85.806825 
L 346.017851 83.873983 
L 349.29719 81.962723 
L 352.576529 80.07324 
L 355.855868 78.205727 
L 359.135207 76.360374 
L 362.414545 74.53737 
L 365.693884 72.736901 
L 368.973223 70.959149 
L 372.252562 69.204297 
L 375.531901 67.472523 
L 378.81124 65.764004 
L 382.090579 64.078915 
L 385.369917 62.417427 
L 388.649256 60.779709 
L 391.928595 59.165929 
L 395.207934 57.576251 
L 398.487273 56.010837 
" style="fill:none;stroke:#1f77b4;stroke-linecap:square;stroke-width:1.5;"/>
   </g>
   <g id="line2d_13">
    <path clip-path="url(#p746eef35a2)" d="M 73.832727 295.488 
L 77.112066 294.349553 
L 80.391405 287.518871 
L 83.670744 289.795765 
L 86.950083 285.241976 
L 90.229421 278.411294 
L 93.50876 278.980518 
L 96.788099 276.703624 
L 100.067438 278.411294 
L 103.346777 272.719059 
L 106.626116 267.026824 
L 109.905455 263.611482 
L 113.184793 256.211576 
L 116.464132 259.057694 
L 119.743471 259.626918 
L 123.02281 253.934682 
L 126.302149 253.934682 
L 129.581488 247.673224 
L 132.860826 253.365459 
L 136.140165 235.719529 
L 139.419504 236.857976 
L 142.698843 235.719529 
L 145.978182 237.4272 
L 149.257521 238.565647 
L 152.53686 228.319624 
L 155.816198 227.181176 
L 159.095537 226.611953 
L 162.374876 220.350494 
L 165.654215 215.227482 
L 168.933554 209.535247 
L 172.212893 208.966024 
L 175.492231 212.950588 
L 178.77157 214.658259 
L 182.050909 197.581553 
L 185.330248 203.273788 
L 188.609587 190.750871 
L 191.888926 183.920188 
L 195.168264 189.612424 
L 198.447603 189.612424 
L 201.726942 191.889318 
L 205.006281 191.320094 
L 208.28562 181.643294 
L 211.564959 178.797176 
L 214.844298 177.089506 
L 218.123636 177.658729 
L 221.402975 159.443576 
L 224.682314 174.243388 
L 227.961653 178.227953 
L 231.240992 160.582024 
L 234.520331 165.705035 
L 237.799669 157.735906 
L 241.079008 154.889788 
L 244.358347 158.305129 
L 247.637686 146.351435 
L 250.917025 138.951529 
L 254.196364 146.920659 
L 257.475702 132.120847 
L 260.755041 144.643765 
L 264.03438 149.197553 
L 267.313719 133.259294 
L 270.593058 139.520753 
L 273.872397 130.9824 
L 277.151736 116.182588 
L 280.431074 127.567059 
L 283.710413 115.613365 
L 286.989752 118.459482 
L 290.269091 112.198024 
L 293.54843 115.044141 
L 296.827769 122.444047 
L 300.107107 121.3056 
L 303.386446 112.767247 
L 306.665785 105.936565 
L 309.945124 111.6288 
L 313.224463 102.521224 
L 316.503802 101.382776 
L 319.78314 103.090447 
L 323.062479 97.967435 
L 326.341818 105.936565 
L 329.621157 97.398212 
L 332.900496 89.429082 
L 336.179835 87.721412 
L 339.459174 92.2752 
L 342.738512 89.998306 
L 346.017851 86.013741 
L 349.29719 75.767718 
L 352.576529 78.613835 
L 355.855868 80.321506 
L 359.135207 84.875294 
L 362.414545 79.752282 
L 365.693884 71.213929 
L 368.973223 74.629271 
L 372.252562 77.475388 
L 375.531901 74.629271 
L 378.81124 60.967906 
L 382.090579 55.275671 
L 385.369917 56.983341 
L 388.649256 59.260235 
L 391.928595 54.137224 
L 395.207934 56.983341 
L 398.487273 53.568 
" style="fill:none;stroke:#ff7f0e;stroke-linecap:square;stroke-width:1.5;"/>
   </g>
   <g id="patch_3">
    <path d="M 57.6 307.584 
L 57.6 41.472 
" style="fill:none;stroke:#000000;stroke-linecap:square;stroke-linejoin:miter;stroke-width:0.8;"/>
   </g>
   <g id="patch_4">
    <path d="M 414.72 307.584 
L 414.72 41.472 
" style="fill:none;stroke:#000000;stroke-linecap:square;stroke-linejoin:miter;stroke-width:0.8;"/>
   </g>
   <g id="patch_5">
    <path d="M 57.6 307.584 
L 414.72 307.584 
" style="fill:none;stroke:#000000;stroke-linecap:square;stroke-linejoin:miter;stroke-width:0.8;"/>
   </g>
   <g id="patch_6">
    <path d="M 57.6 41.472 
L 414.72 41.472 
" style="fill:none;stroke:#000000;stroke-linecap:square;stroke-linejoin:miter;stroke-width:0.8;"/>
   </g>
   <g id="text_14">
    <text style="font-family:DejaVu Sans;font-size:12px;font-style:normal;font-weight:normal;" transform="translate(127.4025 22.034625)">Simulated Mean for sin(x) Algorithm</text>
    <text style="font-family:DejaVu Sans;font-size:12px;font-style:normal;font-weight:normal;" transform="translate(132.609375 35.472)">(Wasserstein Distances in Legend)</text>
   </g>
   <g id="legend_1">
    <g id="patch_7">
     <path d="M 64.6 78.82825 
L 242.85 78.82825 
Q 244.85 78.82825 244.85 76.82825 
L 244.85 48.472 
Q 244.85 46.472 242.85 46.472 
L 64.6 46.472 
Q 62.6 46.472 62.6 48.472 
L 62.6 76.82825 
Q 62.6 78.82825 64.6 78.82825 
z
" style="fill:#ffffff;opacity:0.8;stroke:#cccccc;stroke-linejoin:miter;"/>
    </g>
    <g id="line2d_14">
     <path d="M 66.6 54.570437 
L 86.6 54.570437 
" style="fill:none;stroke:#1f77b4;stroke-linecap:square;stroke-width:1.5;"/>
    </g>
    <g id="line2d_15"/>
    <g id="text_15">
     <text style="font-family:DejaVu Sans;font-size:10px;font-style:normal;font-weight:normal;text-anchor:start;" transform="rotate(-0, 94.6, 58.070437)" x="94.6" y="58.070437">sin(x)</text>
    </g>
    <g id="line2d_16">
     <path d="M 66.6 69.248562 
L 86.6 69.248562 
" style="fill:none;stroke:#ff7f0e;stroke-linecap:square;stroke-width:1.5;"/>
    </g>
    <g id="line2d_17"/>
    <g id="text_16">
     <text style="font-family:DejaVu Sans;font-size:10px;font-style:normal;font-weight:normal;text-anchor:start;" transform="rotate(-0, 94.6, 72.748562)" x="94.6" y="72.748562">Simul. Mean (WD=0.007852)</text>
    </g>
   </g>
  </g>
 </g>
 <defs>
  <clipPath id="p746eef35a2">
   <rect height="266.112" width="357.12" x="57.6" y="41.472"/>
  </clipPath>
 </defs>
</svg>

<svg height="460.8" viewBox="0 0 460.8 345.6" width="614.4" xmlns="http://www.w3.org/2000/svg" xmlns:xlink="http://www.w3.org/1999/xlink"><defs><style>*{stroke-linecap:butt;stroke-linejoin:round}</style></defs><g id="figure_1"><path d="M0 345.6h460.8V0H0z" fill="#fff" id="patch_1"/><g id="axes_1"><path d="M57.6 307.584h357.12V41.472H57.6z" fill="#fff" id="patch_2"/><g id="matplotlib.axis_1"><g id="xtick_1"><g id="line2d_1"><defs><path d="M0 0v3.5" id="m39aacca548" stroke="#000" stroke-width=".8"/></defs><use x="73.8" xlink:href="#m39aacca548" y="307.584" stroke="#000" stroke-width=".8"/></g><text x="73.8" y="322.182" font-family="DejaVu Sans" font-size="10" font-weight="400" text-anchor="middle" id="text_1">0.0</text></g><g id="xtick_2"><use x="138.744" xlink:href="#m39aacca548" y="307.584" stroke="#000" stroke-width=".8" id="line2d_2"/><text x="138.744" y="322.182" font-family="DejaVu Sans" font-size="10" font-weight="400" text-anchor="middle" id="text_2">0.2</text></g><g id="xtick_3"><use x="203.688" xlink:href="#m39aacca548" y="307.584" stroke="#000" stroke-width=".8" id="line2d_3"/><text x="203.688" y="322.182" font-family="DejaVu Sans" font-size="10" font-weight="400" text-anchor="middle" id="text_3">0.4</text></g><g id="xtick_4"><use x="268.632" xlink:href="#m39aacca548" y="307.584" stroke="#000" stroke-width=".8" id="line2d_4"/><text x="268.632" y="322.182" font-family="DejaVu Sans" font-size="10" font-weight="400" text-anchor="middle" id="text_4">0.6</text></g><g id="xtick_5"><use x="333.576" xlink:href="#m39aacca548" y="307.584" stroke="#000" stroke-width=".8" id="line2d_5"/><text x="333.576" y="322.182" font-family="DejaVu Sans" font-size="10" font-weight="400" text-anchor="middle" id="text_5">0.8</text></g><g id="xtick_6"><use x="398.52" xlink:href="#m39aacca548" y="307.584" stroke="#000" stroke-width=".8" id="line2d_6"/><text x="398.52" y="322.182" font-family="DejaVu Sans" font-size="10" font-weight="400" text-anchor="middle" id="text_6">1.0</text></g><text x="236.16" y="335.861" font-family="DejaVu Sans" font-size="10" font-weight="400" text-anchor="middle" id="text_7">Input Coin&apos;s Heads Probability (λ)</text></g><g id="matplotlib.axis_2"><g id="ytick_1"><g id="line2d_7"><defs><path d="M0 0h-3.5" id="m3e6b730ee4" stroke="#000" stroke-width=".8"/></defs><use x="57.6" xlink:href="#m3e6b730ee4" y="295.488" stroke="#000" stroke-width=".8"/></g><text x="50.6" y="299.287" font-family="DejaVu Sans" font-size="10" font-weight="400" text-anchor="end" id="text_8">0.0</text></g><g id="ytick_2"><use x="57.6" xlink:href="#m3e6b730ee4" y="238.566" stroke="#000" stroke-width=".8" id="line2d_8"/><text x="50.6" y="242.365" font-family="DejaVu Sans" font-size="10" font-weight="400" text-anchor="end" id="text_9">0.2</text></g><g id="ytick_3"><use x="57.6" xlink:href="#m3e6b730ee4" y="181.643" stroke="#000" stroke-width=".8" id="line2d_9"/><text x="50.6" y="185.443" font-family="DejaVu Sans" font-size="10" font-weight="400" text-anchor="end" id="text_10">0.4</text></g><g id="ytick_4"><use x="57.6" xlink:href="#m3e6b730ee4" y="124.721" stroke="#000" stroke-width=".8" id="line2d_10"/><text x="50.6" y="128.52" font-family="DejaVu Sans" font-size="10" font-weight="400" text-anchor="end" id="text_11">0.6</text></g><g id="ytick_5"><use x="57.6" xlink:href="#m3e6b730ee4" y="67.799" stroke="#000" stroke-width=".8" id="line2d_11"/><text x="50.6" y="71.598" font-family="DejaVu Sans" font-size="10" font-weight="400" text-anchor="end" id="text_12">0.8</text></g><text transform="rotate(-90 28.617 174.528)" x="28.617" y="174.528" font-family="DejaVu Sans" font-size="10" font-weight="400" text-anchor="middle" id="text_13">Simulated Mean / Function Value</text></g><path clip-path="url(#p746eef35a2)" d="M73.833 295.46l3.28-2.875 3.278-2.874 3.28-2.873 3.28-2.872 3.278-2.872 3.28-2.87 3.28-2.868 3.278-2.866 3.28-2.863 3.28-2.861 3.278-2.858 3.28-2.855 3.28-2.852 3.278-2.847 3.28-2.844 3.28-2.839 3.278-2.834 3.28-2.83 3.28-2.824 3.279-2.819 3.279-2.812 3.28-2.807 3.279-2.8 3.279-2.794 3.28-2.787 3.279-2.78 3.279-2.771 3.28-2.764 3.279-2.756 3.279-2.748 3.28-2.739 3.279-2.73 3.279-2.72 3.28-2.712 3.279-2.701 3.279-2.692 3.28-2.68 3.279-2.671 3.279-2.66 3.28-2.648 3.279-2.637 3.279-2.626 3.28-2.613 3.279-2.601 3.279-2.59 3.28-2.575 3.279-2.563 3.279-2.55 3.28-2.536 3.279-2.523 3.279-2.508 3.28-2.494 3.279-2.48 3.279-2.464 3.28-2.45 3.279-2.434 3.279-2.42 3.28-2.402 3.279-2.387 3.28-2.37 3.278-2.355 3.28-2.337 3.28-2.32 3.278-2.303 3.28-2.286 3.28-2.268 3.278-2.25 3.28-2.232 3.28-2.213 3.278-2.195 3.28-2.175 3.28-2.157 3.278-2.138 3.28-2.118 3.28-2.098 3.278-2.078 3.28-2.058 3.28-2.038 3.278-2.017 3.28-1.997 3.28-1.975 3.279-1.954 3.279-1.933 3.28-1.911 3.279-1.89 3.279-1.867 3.28-1.846 3.279-1.823 3.279-1.8 3.28-1.778 3.279-1.755 3.279-1.731 3.28-1.709 3.279-1.685 3.279-1.662 3.28-1.637 3.279-1.614 3.279-1.59 3.28-1.565" fill="none" stroke="#1f77b4" stroke-linecap="square" stroke-width="1.5" id="line2d_12"/><path clip-path="url(#p746eef35a2)" d="M73.833 295.488l3.28-1.138 3.278-6.831 3.28 2.277 3.28-4.554 3.278-6.83 3.28.569 3.28-2.277 3.278 1.707 3.28-5.692 3.28-5.692 3.278-3.416 3.28-7.4 3.28 2.847 3.278.569 3.28-5.692h3.28l3.278-6.262 3.28 5.692 3.28-17.645 3.279 1.138 3.279-1.138 3.28 1.707 3.279 1.139 3.279-10.246 3.28-1.139 3.279-.569 3.279-6.262 3.28-5.123 3.279-5.692 3.279-.569 3.28 3.985 3.279 1.707 3.279-17.076 3.28 5.692 3.279-12.523 3.279-6.83 3.28 5.691h3.279l3.279 2.277 3.28-.569 3.279-9.677 3.279-2.846 3.28-1.707 3.279.569 3.279-18.215 3.28 14.8 3.279 3.984 3.279-17.646 3.28 5.123 3.279-7.97 3.279-2.845 3.28 3.415 3.279-11.954 3.279-7.4 3.28 7.97 3.279-14.8 3.279 12.523 3.28 4.554 3.279-15.939 3.28 6.262 3.278-8.539 3.28-14.8 3.28 11.385 3.278-11.954 3.28 2.846 3.28-6.261 3.278 2.846 3.28 7.4 3.28-1.138 3.278-8.539 3.28-6.83 3.28 5.692 3.278-9.108 3.28-1.138 3.28 1.707 3.278-5.123 3.28 7.97 3.28-8.539 3.278-7.969 3.28-1.708 3.28 4.554 3.279-2.277 3.279-3.984 3.28-10.246 3.279 2.846 3.279 1.708 3.28 4.553 3.279-5.123 3.279-8.538 3.28 3.415 3.279 2.846 3.279-2.846 3.28-13.661 3.279-5.692 3.279 1.707 3.28 2.277 3.279-5.123 3.279 2.846 3.28-3.415" fill="none" stroke="#ff7f0e" stroke-linecap="square" stroke-width="1.5" id="line2d_13"/><path d="M57.6 307.584V41.472" fill="none" stroke="#000" stroke-linecap="square" stroke-width=".8" id="patch_3"/><path d="M414.72 307.584V41.472" fill="none" stroke="#000" stroke-linecap="square" stroke-width=".8" id="patch_4"/><path d="M57.6 307.584h357.12" fill="none" stroke="#000" stroke-linecap="square" stroke-width=".8" id="patch_5"/><path d="M57.6 41.472h357.12" fill="none" stroke="#000" stroke-linecap="square" stroke-width=".8" id="patch_6"/><g id="text_14" font-family="DejaVu Sans" font-size="12" font-weight="400"><text transform="translate(127.403 22.035)">Simulated Mean for sin(x) Algorithm</text><text transform="translate(132.61 35.472)">(Wasserstein Distances in Legend)</text></g><g id="legend_1"><path d="M64.6 78.828h178.25q2 0 2-2V48.472q0-2-2-2H64.6q-2 0-2 2v28.356q0 2 2 2z" fill="#fff" opacity=".8" stroke="#ccc" id="patch_7"/><path d="M66.6 54.57h20" fill="none" stroke="#1f77b4" stroke-linecap="square" stroke-width="1.5" id="line2d_14"/><text x="94.6" y="58.07" font-family="DejaVu Sans" font-size="10" font-weight="400" id="text_15">sin(x)</text><path d="M66.6 69.249h20" fill="none" stroke="#ff7f0e" stroke-linecap="square" stroke-width="1.5" id="line2d_16"/><text x="94.6" y="72.749" font-family="DejaVu Sans" font-size="10" font-weight="400" id="text_16">Simul. Mean (WD=0.007852)</text></g></g></g><defs><clipPath id="p746eef35a2"><path d="M57.6 41.472h357.12v266.112H57.6z"/></clipPath></defs></svg>
